src/images/crypto-icon-svg/xuc.svg

<svg xmlns="http://www.w3.org/2000/svg" width="32" height="32" viewBox="0 0 32 32">
  <g fill="none">
    <circle cx="16" cy="16" r="16" fill="#25AAE3"/>
    <path fill="#FFF" d="M27,15.9995187 C27,22.0750399 22.075417,27 16.000361,27 C9.92530489,27 5,22.0752806 5,15.9995187 C5,9.92375681 9.92530489,5 16.000361,5 C22.075417,5 27,9.92496007 27,16.0004813 L27,15.9995187 Z M23.2304621,16.3460588 C23.2369593,16.2206786 23.2304621,16.3460588 23.2304621,16.2194754 C23.2304621,12.6116082 20.5649549,9.4075565 17.1080011,8.86921613 L17.1080011,6.76952023 L14.8686574,7.46741342 L14.8686574,8.87017874 C11.4129068,9.4075565 8.76592836,12.3897263 8.76592836,15.9949463 C8.76592836,19.6858387 11.5368335,22.7250432 15.1102543,23.1603842 L15.1102543,25.2283139 L17.3508012,24.5304207 L17.3508012,23.0840972 C19.8842002,22.5984598 21.9454744,20.7906758 22.7913043,18.4033998 L20.4689418,18.4033998 C19.6098769,20.0015752 17.9302488,21.0888446 15.9890511,21.0888446 C13.2999617,21.0888446 11.1029696,19.0038286 10.9116653,16.3633858 L23.2304621,16.3460588 Z M11.2507192,14.1303682 C11.9950014,12.2407622 13.8344107,10.9012886 15.9890511,10.9012886 C18.1436916,10.9012886 19.9818977,12.2407622 20.7273831,14.1303682 L11.2507192,14.1303682 Z"/>
  </g>
</svg>

<svg xmlns="http://www.w3.org/2000/svg" width="32" height="32"><g fill="none"><circle cx="16" cy="16" r="16" fill="#25AAE3"/><path fill="#FFF" d="M27 16c0 6.075-4.925 11-11 11S5 22.075 5 16C5 9.924 9.925 5 16 5s11 4.925 11 11zm-3.77.346c.007-.125 0 0 0-.127 0-3.607-2.665-6.811-6.122-7.35v-2.1l-2.24.698V8.87c-3.455.538-6.102 3.52-6.102 7.125 0 3.69 2.77 6.73 6.344 7.165v2.068l2.24-.698v-1.446a7.23 7.23 0 0 0 5.441-4.68H20.47a5.08 5.08 0 0 1-4.48 2.685 5.094 5.094 0 0 1-5.077-4.726l12.318-.017zM11.25 14.13a5.093 5.093 0 0 1 4.74-3.229 5.095 5.095 0 0 1 4.737 3.23h-9.476z"/></g></svg>
